contributed-vectors/identity_v.svg

<svg width="192" height="192" viewBox="0 0 192 192" fill="none" xmlns="http://www.w3.org/2000/svg">
<ellipse cx="95" cy="64.5" rx="45" ry="40.5" fill="#E2C8B0"/>
<ellipse cx="96" cy="82.5" rx="86" ry="40.5" fill="#D4B79A"/>
<ellipse cx="96" cy="92.5" rx="50" ry="23.5" fill="#8E6F60"/>
<path d="M134 114.5C134 137.972 108 157 96 157C84 157 58 137.972 58 114.5C58 91.0279 75.0132 72 96 72C116.987 72 134 91.0279 134 114.5Z" fill="#FCECDC"/>
<path d="M87 130.5L93 125C93 125 93.5 111.5 93.5 105.5C93.5 99.4999 99.985 92.1129 108 89.9999C115.651 87.983 122.039 89.7748 127.5 95.4999C131.429 99.6191 133.967 103.39 133 109C131.656 116.792 123.9 120.344 116 120C108.078 119.655 100 112 100 107.5C100 104.78 102.5 101 102.5 101C102.5 101 98.3066 105.441 97 109C95.1831 113.949 95.8488 117.355 97 122.5C97.7286 125.756 100 130.5 100 130.5H87Z" fill="#D4B79A"/>
<path d="M80.5 97.2984C75.0385 91.5733 68.651 95.2819 61 97.2988V105.5C61 110 59.5 117 68 120C75.4567 122.632 84.6563 118.591 86 110.798C86.9674 105.188 84.4295 101.418 80.5 97.2984Z" fill="#D4B79A"/>
<path d="M54.4999 116.5C53.9999 127.5 60.9999 168.5 60.9999 169L62.5 152L64.5 162.5C64.8333 161 64.9 154.3 62.5 139.5C60.1 124.7 61.5 109 62.5 103C64.5 101.333 70.1 96.9 76.5 92.5C82.9 88.1 92.5 77.6667 96.5 73C99.5 76.8333 106.4 85.6 110 90C113.6 94.4 122.833 100.5 127 103C127.5 104 128.5 108.3 128.5 117.5C128.5 126.7 127.5 154.333 127 167L131 148L132.5 158C133.333 149.333 135 131.4 135 129C135 126 137 116.5 138 108C138.8 101.2 137 87.1666 136 81C128.5 77.3334 110.4 69.9002 98 69.5002C85.6 69.1002 66.8333 74.3335 59 77.0002C57.5 81.0002 54.4999 89.9002 54.4999 93.5002C54.4999 98.0002 56 97.0002 56 99.5002C56 101.5 52 103.667 50 104.5H56C55.6666 104.834 54.8999 107.7 54.4999 116.5Z" fill="#8E6F60"/>
<path d="M103 144.5C103 141.462 98.9706 139 94 139C89.0294 139 85 141.462 85 144.5" stroke="#D3B69A" stroke-width="2" stroke-linecap="round"/>
<g filter="url(#filter0_i_1029:723)">
<circle cx="115" cy="108" r="11" fill="white"/>
</g>
<circle cx="115" cy="108" r="10.5" stroke="#D8D8D8"/>
<g filter="url(#filter1_i_1029:723)">
<circle cx="73" cy="108" r="11" fill="white"/>
</g>
<circle cx="73" cy="108" r="10.5" stroke="#D8D8D8"/>
<circle cx="115" cy="108" r="7.5" fill="#D8D8D8" stroke="#979797"/>
<circle cx="73" cy="108" r="7.5" fill="#D8D8D8" stroke="#979797"/>
<path d="M115.5 103V112.5M111 108H119.5" stroke="white" stroke-width="2" stroke-linecap="round" stroke-linejoin="round"/>
<path d="M73.5 103V112.5M69 108H77.5" stroke="white" stroke-width="2" stroke-linecap="round" stroke-linejoin="round"/>
<path fill-rule="evenodd" clip-rule="evenodd" d="M73 121.5C73 122.328 72.3284 123 71.5 123C70.6716 123 70 122.328 70 121.5C70 120.672 70.6716 120 71.5 120C72.3284 120 73 120.672 73 121.5ZM68 124.5C68 125.328 67.3284 126 66.5 126C65.6716 126 65 125.328 65 124.5C65 123.672 65.6716 123 66.5 123C67.3284 123 68 123.672 68 124.5ZM80.5 125C81.3284 125 82 124.328 82 123.5C82 122.672 81.3284 122 80.5 122C79.6716 122 79 122.672 79 123.5C79 124.328 79.6716 125 80.5 125ZM75 127.5C75 128.328 74.3284 129 73.5 129C72.6716 129 72 128.328 72 127.5C72 126.672 72.6716 126 73.5 126C74.3284 126 75 126.672 75 127.5ZM108.5 125C109.328 125 110 124.328 110 123.5C110 122.672 109.328 122 108.5 122C107.672 122 107 122.672 107 123.5C107 124.328 107.672 125 108.5 125ZM124 122.5C124 123.328 123.328 124 122.5 124C121.672 124 121 123.328 121 122.5C121 121.672 121.672 121 122.5 121C123.328 121 124 121.672 124 122.5ZM116.5 130C117.328 130 118 129.328 118 128.5C118 127.672 117.328 127 116.5 127C115.672 127 115 127.672 115 128.5C115 129.328 115.672 130 116.5 130Z" fill="#D4B79A"/>
<defs>
<filter id="filter0_i_1029:723" x="104" y="97" width="22" height="22" filterUnits="userSpaceOnUse" color-interpolation-filters="sRGB">
<feFlood flood-opacity="0" result="BackgroundImageFix"/>
<feBlend mode="normal" in="SourceGraphic" in2="BackgroundImageFix" result="shape"/>
<feColorMatrix in="SourceAlpha" type="matrix" values="0 0 0 0 0 0 0 0 0 0 0 0 0 0 0 0 0 0 127 0" result="hardAlpha"/>
<feOffset dx="-2" dy="-2"/>
<feComposite in2="hardAlpha" operator="arithmetic" k2="-1" k3="1"/>
<feColorMatrix type="matrix" values="0 0 0 0 0.847059 0 0 0 0 0.847059 0 0 0 0 0.847059 0 0 0 1 0"/>
<feBlend mode="normal" in2="shape" result="effect1_innerShadow_1029:723"/>
</filter>
<filter id="filter1_i_1029:723" x="62" y="97" width="22" height="22" filterUnits="userSpaceOnUse" color-interpolation-filters="sRGB">
<feFlood flood-opacity="0" result="BackgroundImageFix"/>
<feBlend mode="normal" in="SourceGraphic" in2="BackgroundImageFix" result="shape"/>
<feColorMatrix in="SourceAlpha" type="matrix" values="0 0 0 0 0 0 0 0 0 0 0 0 0 0 0 0 0 0 127 0" result="hardAlpha"/>
<feOffset dx="-2" dy="-2"/>
<feComposite in2="hardAlpha" operator="arithmetic" k2="-1" k3="1"/>
<feColorMatrix type="matrix" values="0 0 0 0 0.847059 0 0 0 0 0.847059 0 0 0 0 0.847059 0 0 0 1 0"/>
<feBlend mode="normal" in2="shape" result="effect1_innerShadow_1029:723"/>
</filter>
</defs>
</svg>

<svg xmlns="http://www.w3.org/2000/svg" width="192" height="192" fill="none"><ellipse cx="95" cy="64.5" fill="#E2C8B0" rx="45" ry="40.5"/><ellipse cx="96" cy="82.5" fill="#D4B79A" rx="86" ry="40.5"/><ellipse cx="96" cy="92.5" fill="#8E6F60" rx="50" ry="23.5"/><path fill="#FCECDC" d="M134 114.5c0 23.472-26 42.5-38 42.5s-38-19.028-38-42.5S75.013 72 96 72s38 19.028 38 42.5Z"/><path fill="#D4B79A" d="m87 130.5 6-5.5s.5-13.5.5-19.5S99.985 92.113 108 90c7.651-2.017 14.039-.225 19.5 5.5 3.929 4.12 6.467 7.89 5.5 13.5-1.344 7.792-9.1 11.344-17 11-7.922-.345-16-8-16-12.5 0-2.72 2.5-6.5 2.5-6.5s-4.193 4.441-5.5 8c-1.817 4.949-1.151 8.355 0 13.5.729 3.256 3 8 3 8H87ZM80.5 97.298c-5.462-5.725-11.849-2.016-19.5 0v8.202c0 4.5-1.5 11.5 7 14.5 7.457 2.632 16.656-1.409 18-9.202.967-5.61-1.57-9.38-5.5-13.5Z"/><path fill="#8E6F60" d="M54.5 116.5c-.5 11 6.5 52 6.5 52.5l1.5-17 2 10.5c.333-1.5.4-8.2-2-23s-1-30.5 0-36.5c2-1.667 7.6-6.1 14-10.5s16-14.833 20-19.5c3 3.833 9.9 12.6 13.5 17 3.6 4.4 12.833 10.5 17 13 .5 1 1.5 5.3 1.5 14.5s-1 36.833-1.5 49.5l4-19 1.5 10c.833-8.667 2.5-26.6 2.5-29 0-3 2-12.5 3-21 .8-6.8-1-20.833-2-27-7.5-3.667-25.6-11.1-38-11.5-12.4-.4-31.167 4.834-39 7.5-1.5 4-4.5 12.9-4.5 16.5 0 4.5 1.5 3.5 1.5 6 0 2-4 4.167-6 5h6c-.333.334-1.1 3.2-1.5 12Z"/><path stroke="#D3B69A" stroke-linecap="round" stroke-width="2" d="M103 144.5c0-3.038-4.03-5.5-9-5.5s-9 2.462-9 5.5"/><g filter="url(#a)"><circle cx="115" cy="108" r="11" fill="#fff"/></g><circle cx="115" cy="108" r="10.5" stroke="#D8D8D8"/><g filter="url(#b)"><circle cx="73" cy="108" r="11" fill="#fff"/></g><circle cx="73" cy="108" r="10.5" stroke="#D8D8D8"/><circle cx="115" cy="108" r="7.5" fill="#D8D8D8" stroke="#979797"/><circle cx="73" cy="108" r="7.5" fill="#D8D8D8" stroke="#979797"/><path stroke="#fff" stroke-linecap="round" stroke-linejoin="round" stroke-width="2" d="M115.5 103v9.5M111 108h8.5M73.5 103v9.5M69 108h8.5"/><path fill="#D4B79A" fill-rule="evenodd" d="M73 121.5a1.5 1.5 0 1 1-3 0 1.5 1.5 0 0 1 3 0Zm-5 3a1.5 1.5 0 1 1-3 0 1.5 1.5 0 0 1 3 0Zm12.5.5a1.5 1.5 0 1 0 0-3 1.5 1.5 0 0 0 0 3Zm-5.5 2.5a1.5 1.5 0 1 1-3 0 1.5 1.5 0 0 1 3 0Zm33.5-2.5a1.5 1.5 0 1 0-.001-3.001A1.5 1.5 0 0 0 108.5 125Zm15.5-2.5a1.5 1.5 0 1 1-3.001-.001 1.5 1.5 0 0 1 3.001.001Zm-7.5 7.5a1.5 1.5 0 1 0-.001-3.001A1.5 1.5 0 0 0 116.5 130Z" clip-rule="evenodd"/><defs><filter id="a" width="22" height="22" x="104" y="97" color-interpolation-filters="sRGB" filterUnits="userSpaceOnUse"><feFlood flood-opacity="0" result="BackgroundImageFix"/><feBlend in="SourceGraphic" in2="BackgroundImageFix" result="shape"/><feColorMatrix in="SourceAlpha" result="hardAlpha" values="0 0 0 0 0 0 0 0 0 0 0 0 0 0 0 0 0 0 127 0"/><feOffset dx="-2" dy="-2"/><feComposite in2="hardAlpha" k2="-1" k3="1" operator="arithmetic"/><feColorMatrix values="0 0 0 0 0.847059 0 0 0 0 0.847059 0 0 0 0 0.847059 0 0 0 1 0"/><feBlend in2="shape" result="effect1_innerShadow_1029:723"/></filter><filter id="b" width="22" height="22" x="62" y="97" color-interpolation-filters="sRGB" filterUnits="userSpaceOnUse"><feFlood flood-opacity="0" result="BackgroundImageFix"/><feBlend in="SourceGraphic" in2="BackgroundImageFix" result="shape"/><feColorMatrix in="SourceAlpha" result="hardAlpha" values="0 0 0 0 0 0 0 0 0 0 0 0 0 0 0 0 0 0 127 0"/><feOffset dx="-2" dy="-2"/><feComposite in2="hardAlpha" k2="-1" k3="1" operator="arithmetic"/><feColorMatrix values="0 0 0 0 0.847059 0 0 0 0 0.847059 0 0 0 0 0.847059 0 0 0 1 0"/><feBlend in2="shape" result="effect1_innerShadow_1029:723"/></filter></defs></svg>
